packages/icons/src/restore-cache-harness-ci-step.svg

<svg fill="none" viewBox="0 0 40 40" xmlns="http://www.w3.org/2000/svg"><path clip-rule="evenodd" d="m16.1224 8.06276c.737-1.22479 2.0612-2.04128 3.5714-2.04128 2.3133 0 4.1885 1.91509 4.1885 4.27752 0 2.3623-1.8752 4.2774-4.1885 4.2774-1.2801 0-2.4257-.5858-3.1948-1.5111l-.2222-.292c-.0584-.0839-.1139-.17-.1664-.2583l-.1583-.2914c-.0472-.0955-.0909-.193-.1311-.2923-.1055-.2607-.398-.3847-.6532-.277-.2553.1077-.3767.4064-.2713.6671.0513.1268.1073.251.1677.3726.0578.1163.1197.2302.1855.3414.0687.1162.1418.2296.2188.3397.0822.1176.169.2316.2601.3417.951 1.1497 2.3747 1.8811 3.9652 1.8811 2.8657 0 5.1887-2.3724 5.1887-5.2989 0-2.92658-2.323-5.299-5.1887-5.299-1.92 0-3.5956 1.06469-4.493 2.64696l-.3015-.78029c-.1013-.26238-.3918-.39116-.6487-.28762-.257.10353-.3831.40017-.2817.66255l.7483 1.93652c.0486.126.1443.22709.266.28103s.2593.05631.3827.00659l1.8963-.76416c.2569-.10354.383-.40018.2816-.66256-.1013-.26239-.3918-.39116-.6487-.28762zm10.7982 5.38544c-.2646-.0807-.5433.073-.6223.3432-.0791.2703.0714.5549.3361.6356 1.1079.3379 1.9778.7495 2.5594 1.1917.59.4486.806.8649.806 1.2105 0 .3117-.1739.6795-.6455 1.0815-.4688.3997-1.1771.7825-2.0963 1.1139-1.8337.6612-4.3998 1.0797-7.258 1.0797s-5.4242-.4185-7.258-1.0797c-.9192-.3314-1.6275-.7142-2.0963-1.1139-.4716-.402-.6455-.7698-.6455-1.0815 0-.3361.2038-.7388.7596-1.1747.5493-.4307 1.3729-.8348 2.4274-1.1718.2636-.0842.4104-.3708.3279-.64s-.3631-.4191-.6267-.3348c-1.1155.3565-2.0607.8055-2.7378 1.3364-.67047.5258-1.1506 1.1933-1.1506 1.9849v13.8742c0 .7338.41373 1.3619 1.0048 1.8657.5938.5063 1.4232.9392 2.4042 1.2929 1.9664.709 4.6503 1.138 7.591 1.138 2.9408 0 5.6246-.429 7.591-1.138.981-.3537 1.8104-.7866 2.4042-1.2929.5911-.5038 1.0048-1.1319 1.0048-1.8657v-13.8742c0-.8138-.5068-1.496-1.2089-2.0298-.7103-.5401-1.7016-.9947-2.8705-1.3512zm3.0746 5.2467.0046-.0038v4.9662c0 .3116-.1739.6795-.6455 1.0815-.4688.3996-1.1771.7825-2.0963 1.1139-1.8337.6612-4.3998 1.0797-7.258 1.0797s-5.4242-.4185-7.258-1.0797c-.9192-.3314-1.6275-.7143-2.0963-1.1139-.4716-.402-.6455-.7699-.6455-1.0815v-4.9662l.0046.0038c.5938.5063 1.4232.9392 2.4042 1.2929 1.9664.709 4.6503 1.138 7.591 1.138 2.9408 0 5.6246-.429 7.591-1.138.981-.3537 1.8104-.7866 2.4042-1.2929zm0 6.8281.0046-.0039v5.1843c0 .3117-.1739.6795-.6455 1.0816-.4688.3996-1.1771.7824-2.0963 1.1138-1.8337.6612-4.3998 1.0797-7.258 1.0797s-5.4242-.4185-7.258-1.0797c-.9192-.3314-1.6275-.7142-2.0963-1.1138-.4716-.4021-.6455-.7699-.6455-1.0816v-5.1843l.0046.0039c.5938.5062 1.4232.9392 2.4042 1.2929 1.9664.709 4.6503 1.138 7.591 1.138 2.9408 0 5.6246-.429 7.591-1.138.981-.3537 1.8104-.7867 2.4042-1.2929zm-17.5578-3.248c0 .3509-.2786.6354-.6223.6354-.3436 0-.6222-.2845-.6222-.6354 0-.351.2786-.6355.6222-.6355.3437 0 .6223.2845.6223.6355zm0 7.0216c0 .3509-.2786.6354-.6223.6354-.3436 0-.6222-.2845-.6222-.6354 0-.351.2786-.6355.6222-.6355.3437 0 .6223.2845.6223.6355z" fill="#4f5162" fill-rule="evenodd"/></svg>

<svg viewBox="0 0 40 40" fill="none" xmlns="http://www.w3.org/2000/svg">
<path fill-rule="evenodd" clip-rule="evenodd" d="M16.1224 8.06276C16.8594 6.83797 18.1836 6.02148 19.6938 6.02148C22.0071 6.02148 23.8823 7.93657 23.8823 10.299C23.8823 12.6613 22.0071 14.5764 19.6938 14.5764C18.4137 14.5764 17.2681 13.9906 16.499 13.0653L16.2768 12.7733C16.2184 12.6894 16.1629 12.6033 16.1104 12.515L15.9521 12.2236C15.9049 12.1281 15.8612 12.0306 15.821 11.9313C15.7155 11.6706 15.423 11.5466 15.1678 11.6543C14.9125 11.762 14.7911 12.0607 14.8965 12.3214C14.9478 12.4482 15.0038 12.5724 15.0642 12.694C15.122 12.8103 15.1839 12.9242 15.2497 13.0354C15.3184 13.1516 15.3915 13.265 15.4685 13.3751C15.5507 13.4927 15.6375 13.6067 15.7286 13.7168C16.6796 14.8665 18.1033 15.5979 19.6938 15.5979C22.5595 15.5979 24.8825 13.2255 24.8825 10.299C24.8825 7.37242 22.5595 5 19.6938 5C17.7738 5 16.0982 6.06469 15.2008 7.64696L14.8993 6.86667C14.798 6.60429 14.5075 6.47551 14.2506 6.57905C13.9936 6.68258 13.8675 6.97922 13.9689 7.2416L14.7172 9.17812C14.7658 9.30412 14.8615 9.40521 14.9832 9.45915C15.1049 9.51309 15.2425 9.51546 15.3659 9.46574L17.2622 8.70158C17.5191 8.59804 17.6452 8.3014 17.5438 8.03902C17.4425 7.77663 17.152 7.64786 16.8951 7.7514L16.1224 8.06276ZM26.9206 13.4482C26.656 13.3675 26.3773 13.5212 26.2983 13.7914C26.2192 14.0617 26.3697 14.3463 26.6344 14.427C27.7423 14.7649 28.6122 15.1765 29.1938 15.6187C29.7838 16.0673 29.9998 16.4836 29.9998 16.8292C29.9998 17.1409 29.8259 17.5087 29.3543 17.9107C28.8855 18.3104 28.1772 18.6932 27.258 19.0246C25.4243 19.6858 22.8582 20.1043 20 20.1043C17.1418 20.1043 14.5758 19.6858 12.742 19.0246C11.8228 18.6932 11.1145 18.3104 10.6457 17.9107C10.1741 17.5087 10.0002 17.1409 10.0002 16.8292C10.0002 16.4931 10.204 16.0904 10.7598 15.6545C11.3091 15.2238 12.1327 14.8197 13.1872 14.4827C13.4508 14.3985 13.5976 14.1119 13.5151 13.8427C13.4326 13.5735 13.152 13.4236 12.8884 13.5079C11.7729 13.8644 10.8277 14.3134 10.1506 14.8443C9.48013 15.3701 9 16.0376 9 16.8292V30.7034C9 31.4372 9.41373 32.0653 10.0048 32.5691C10.5986 33.0754 11.428 33.5083 12.409 33.862C14.3754 34.571 17.0593 35 20 35C22.9408 35 25.6246 34.571 27.591 33.862C28.572 33.5083 29.4014 33.0754 29.9952 32.5691C30.5863 32.0653 31 31.4372 31 30.7034V16.8292C31 16.0154 30.4932 15.3332 29.7911 14.7994C29.0808 14.2593 28.0895 13.8047 26.9206 13.4482ZM29.9952 18.6949L29.9998 18.6911V23.6573C29.9998 23.9689 29.8259 24.3368 29.3543 24.7388C28.8855 25.1384 28.1772 25.5213 27.258 25.8527C25.4243 26.5139 22.8582 26.9324 20 26.9324C17.1418 26.9324 14.5758 26.5139 12.742 25.8527C11.8228 25.5213 11.1145 25.1384 10.6457 24.7388C10.1741 24.3368 10.0002 23.9689 10.0002 23.6573V18.6911L10.0048 18.6949C10.5986 19.2012 11.428 19.6341 12.409 19.9878C14.3754 20.6968 17.0593 21.1258 20 21.1258C22.9408 21.1258 25.6246 20.6968 27.591 19.9878C28.572 19.6341 29.4014 19.2012 29.9952 18.6949ZM29.9952 25.523L29.9998 25.5191V30.7034C29.9998 31.0151 29.8259 31.3829 29.3543 31.785C28.8855 32.1846 28.1772 32.5674 27.258 32.8988C25.4243 33.56 22.8582 33.9785 20 33.9785C17.1418 33.9785 14.5758 33.56 12.742 32.8988C11.8228 32.5674 11.1145 32.1846 10.6457 31.785C10.1741 31.3829 10.0002 31.0151 10.0002 30.7034V25.5191L10.0048 25.523C10.5986 26.0292 11.428 26.4622 12.409 26.8159C14.3754 27.5249 17.0593 27.9539 20 27.9539C22.9408 27.9539 25.6246 27.5249 27.591 26.8159C28.572 26.4622 29.4014 26.0292 29.9952 25.523ZM12.4374 22.275C12.4374 22.6259 12.1588 22.9104 11.8151 22.9104C11.4715 22.9104 11.1929 22.6259 11.1929 22.275C11.1929 21.924 11.4715 21.6395 11.8151 21.6395C12.1588 21.6395 12.4374 21.924 12.4374 22.275ZM12.4374 29.2966C12.4374 29.6475 12.1588 29.932 11.8151 29.932C11.4715 29.932 11.1929 29.6475 11.1929 29.2966C11.1929 28.9456 11.4715 28.6611 11.8151 28.6611C12.1588 28.6611 12.4374 28.9456 12.4374 29.2966Z" fill="#4F5162"/>
</svg>
